docs/index_assets/viveport_logo.svg

<?xml version="1.0" encoding="UTF-8"?>
<!-- Generator: Adobe Illustrator 23.0.1, SVG Export Plug-In . SVG Version: 6.00 Build 0)  -->
<svg version="1.1" id="Logo" xmlns="http://www.w3.org/2000/svg" xmlns:xlink="http://www.w3.org/1999/xlink" x="0px" y="0px" viewBox="0 0 1389 266" style="enable-background:new 0 0 1389 266;" xml:space="preserve">
<style type="text/css">
	.st0{fill:#00B3E3;}
	.st1{fill:#071C2C;}
</style>
<g id="icon">
	<path class="st0" d="M263,156.01L263,156.01c-8.25-39.46-28.32-74.82-58.04-102.26c-18.42-17-46.2-17-64.61,0.01   c-29.72,27.45-49.79,62.81-58.02,102.26C77.33,179.91,86.56,222,174.65,222S267.98,179.88,263,156.01z M230.7,200.62   c-13.79,5.45-31.21,9.47-54.85,9.73c-24.02,0.26-39.14-1.65-56.93-7.28c-20.82-6.59-33.6-22.84-28.52-46.35   c7.92-36.63,45.27-102.8,82.37-102.8s75.94,64.9,84.1,103.93C261.35,179.3,249.19,193.31,230.7,200.62z"/>
	<path class="st0" d="M126.7,170.27c-18.88-28.06-3.09-65-0.79-76.27c-16.32,26.19-36.24,68.81-24.79,84.92   C123.91,211,201.91,199,201.91,199S145.57,198.33,126.7,170.27z"/>
	<path class="st0" d="M205.86,95.98c-6.24-10.64-18.73-14.9-27.89-9.52c-9.16,5.38-11.52,18.36-5.27,28.99   c6.24,10.64,18.73,14.9,27.89,9.52C209.74,119.59,212.11,106.61,205.86,95.98z M195.28,120.63c-6.4,3.76-15.08,0.86-19.39-6.47   c-4.31-7.33-2.61-16.33,3.79-20.09c6.4-3.76,15.08-0.86,19.39,6.47C203.39,107.88,201.69,116.87,195.28,120.63z"/>
</g>
<g id="wordmark">
	<path class="st1" d="M637.92,77.18c-0.96-1.66-2.73-2.68-4.64-2.68h-4.45c-1.18,0-2.26,0.65-2.77,1.71l-38.8,77.22   c-0.81,1.62-3.13,1.62-3.94,0L544.5,76.21c-0.51-1.06-1.59-1.71-2.75-1.71h-4.48c-1.91,0-3.68,1.02-4.64,2.68l-4.93,8.53   c-0.83,1.48-0.9,3.28-0.11,4.81l46.17,90.87c0.76,1.46,2.26,2.38,3.91,2.38h15.23c1.66,0,3.17-0.93,3.91-2.38l46.2-90.87   c0.77-1.51,0.72-3.31-0.13-4.78L637.92,77.18z"/>
	<path class="st1" d="M417.14,77.17c-0.95-1.65-2.71-2.66-4.62-2.66h-4.47c-1.18,0-2.26,0.65-2.77,1.71l-38.79,77.22   c-0.81,1.62-3.13,1.62-3.94,0l-38.82-77.22c-0.51-1.06-1.59-1.71-2.75-1.71h-4.49c-1.9,0-3.66,1.01-4.62,2.66l-4.94,8.54   c-0.83,1.48-0.9,3.28-0.12,4.81l46.17,90.87c0.76,1.46,2.26,2.38,3.91,2.38h15.23c1.66,0,3.17-0.93,3.91-2.38l46.19-90.87   c0.77-1.51,0.73-3.31-0.13-4.78L417.14,77.17z"/>
	<path class="st1" d="M481.25,74.5h-6.91c-1.91,0-3.67,1.02-4.62,2.67l-4.92,8.55c-0.44,0.77-0.67,1.63-0.67,2.51v91.1   c0,2.45,1.98,4.43,4.43,4.43h12.75c2.42,0,4.39-1.97,4.39-4.39V78.94c0-1.23-0.5-2.34-1.3-3.14C483.58,75,482.47,74.5,481.25,74.5z   "/>
	<path class="st1" d="M708.17,93.89h60.3c1.66,0,3.01-1.36,3.01-3v-2c0-1.32-0.35-2.63-1.01-3.78l-4.66-8.01   c-0.94-1.62-2.66-2.61-4.53-2.61h-66.15c-1.91,0-3.67,1.02-4.62,2.67l-4.6,7.94c-0.66,1.15-1.01,2.45-1.01,3.78l-0.01,80.49   c0,1.33,0.35,2.64,1.02,3.8l4.6,7.94c0.95,1.65,2.72,2.67,4.62,2.67h66.15c1.87,0,3.6-0.99,4.53-2.61l4.66-8.03   c0.66-1.15,1.01-2.45,1.01-3.79v-2.01c0-1.64-1.34-2.98-3.01-2.98h-60.31c-1.22,0-2.2-0.99-2.2-2.2V140.7c0-1.22,0.99-2.2,2.2-2.2   H749c2,0,3.63-1.63,3.63-3.63v-12.02c0-1.99-1.61-3.6-3.6-3.63h-40.87c-1.22,0-2.2-0.99-2.2-2.2V96.1   C705.96,94.88,706.95,93.89,708.17,93.89z"/>
	<path class="st1" d="M897.41,83.19c-8.25-8.18-18.95-8.46-21.03-8.49l-51.56-0.02c-1.91,0-3.67,1.02-4.62,2.67l-4.92,8.55   c-0.44,0.77-0.67,1.63-0.67,2.51v91.1c0,2.45,1.98,4.43,4.43,4.43h12.75c2.42,0,4.39-1.97,4.39-4.39v-40.52h40.29   c14.73,0,29.6-10.13,29.6-32.75C906.06,94.28,901.36,87.1,897.41,83.19z M876.46,119.62h-40.29V94.11l40.31,0   c6.93,0,10.17,4.67,10.17,12.17C886.65,115.13,883.41,119.62,876.46,119.62z"/>
	<path class="st1" d="M995.55,183.85c-30.13,0-54.64-24.51-54.64-54.64c0-30.13,24.51-54.64,54.64-54.64   c30.13,0,54.64,24.51,54.64,54.64C1050.18,159.34,1025.67,183.85,995.55,183.85z M995.55,93.98c-19.43,0-35.23,15.8-35.23,35.23   c0,19.43,15.8,35.23,35.23,35.23s35.23-15.8,35.23-35.23C1030.77,109.79,1014.97,93.98,995.55,93.98z"/>
	<path class="st1" d="M1308.82,85.21l-4.66-8.01c-0.94-1.62-2.66-2.61-4.53-2.61h-21.45h-28.21h-21.37c-1.87,0-3.6,0.99-4.53,2.61   l-4.66,8.01c-0.66,1.15-1.01,2.45-1.01,3.78v2c0,1.64,1.34,3,3.01,3h28.56h3.34v85.54c0,2.45,1.98,4.43,4.43,4.43h12.75   c2.42,0,4.39-1.97,4.39-4.39V93.98h3.3h28.64c1.66,0,3.01-1.36,3.01-3v-2C1309.83,87.66,1309.48,86.36,1308.82,85.21z"/>
	<path class="st1" d="M1316.59,74.55v0.62h1.61v3.89h0.73v-3.89h1.57v-0.62H1316.59z M1325.25,74.55l-1.53,3.54h-0.04l-1.52-3.54   h-1.01v4.51h0.73l-0.04-3.5h0.04l1.51,3.5h0.62l1.52-3.5h0.04l-0.04,3.5h0.73v-4.51H1325.25z"/>
	<path class="st1" d="M1158.67,138.19c11.86-2.95,22.05-13.11,22.05-31.84c0-12-4.7-19.18-8.65-23.09   c-8.25-8.18-18.94-8.51-21.02-8.49l-51.56-0.02c-1.91,0-3.67,1.02-4.62,2.67l-4.92,8.55c-0.44,0.77-0.67,1.63-0.67,2.51v91.1   c0,2.45,1.98,4.43,4.43,4.43h12.75c2.42,0,4.39-1.97,4.39-4.39v-40.52h24.28c4.93,9.77,21.31,42.24,21.59,42.78   c0.95,1.83,1.91,2.07,3.77,2.04c0,0,15.39,0.03,17.76,0.03c1.83,0,2.86-1.67,2.14-3.02   C1179.99,180.22,1158.67,138.19,1158.67,138.19z M1110.83,94.19l40.31,0c6.93,0,10.17,4.67,10.17,12.17   c0,8.85-3.24,13.34-10.19,13.34h-40.29V94.19z"/>
</g>
</svg>

<svg width="1389" height="266" viewBox="0 0 1389 266" fill="none" xmlns="http://www.w3.org/2000/svg">
<path d="M263 156.01C254.75 116.55 234.68 81.19 204.96 53.75C186.54 36.75 158.76 36.75 140.35 53.76C110.63 81.21 90.56 116.57 82.33 156.02C77.33 179.91 86.56 222 174.65 222C262.74 222 267.98 179.88 263 156.01ZM230.7 200.62C216.91 206.07 199.49 210.09 175.85 210.35C151.83 210.61 136.71 208.7 118.92 203.07C98.1 196.48 85.32 180.23 90.4 156.72C98.32 120.09 135.67 53.92 172.77 53.92C209.87 53.92 248.71 118.82 256.87 157.85C261.35 179.3 249.19 193.31 230.7 200.62Z" fill="#00B3E3"/>
<path d="M126.7 170.27C107.82 142.21 123.61 105.27 125.91 94C109.59 120.19 89.67 162.81 101.12 178.92C123.91 211 201.91 199 201.91 199C201.91 199 145.57 198.33 126.7 170.27Z" fill="#00B3E3"/>
<path d="M205.86 95.98C199.62 85.34 187.13 81.08 177.97 86.46C168.81 91.84 166.45 104.82 172.7 115.45C178.94 126.09 191.43 130.35 200.59 124.97C209.74 119.59 212.11 106.61 205.86 95.98ZM195.28 120.63C188.88 124.39 180.2 121.49 175.89 114.16C171.58 106.83 173.28 97.83 179.68 94.07C186.08 90.31 194.76 93.21 199.07 100.54C203.39 107.88 201.69 116.87 195.28 120.63Z" fill="#00B3E3"/>
<path d="M637.92 77.18C636.96 75.52 635.19 74.5 633.28 74.5H628.83C627.65 74.5 626.57 75.15 626.06 76.21L587.26 153.43C586.45 155.05 584.13 155.05 583.32 153.43L544.5 76.21C543.99 75.15 542.91 74.5 541.75 74.5H537.27C535.36 74.5 533.59 75.52 532.63 77.18L527.7 85.71C526.87 87.19 526.8 88.99 527.59 90.52L573.76 181.39C574.52 182.85 576.02 183.77 577.67 183.77H592.9C594.56 183.77 596.07 182.84 596.81 181.39L643.01 90.52C643.78 89.01 643.73 87.21 642.88 85.74L637.92 77.18Z" fill="#FEFEFE"/>
<path d="M417.14 77.17C416.19 75.52 414.43 74.51 412.52 74.51H408.05C406.87 74.51 405.79 75.16 405.28 76.22L366.49 153.44C365.68 155.06 363.36 155.06 362.55 153.44L323.73 76.22C323.22 75.16 322.14 74.51 320.98 74.51H316.49C314.59 74.51 312.83 75.52 311.87 77.17L306.93 85.71C306.1 87.19 306.03 88.99 306.81 90.52L352.98 181.39C353.74 182.85 355.24 183.77 356.89 183.77H372.12C373.78 183.77 375.29 182.84 376.03 181.39L422.22 90.52C422.99 89.01 422.95 87.21 422.09 85.74L417.14 77.17Z" fill="#FEFEFE"/>
<path d="M481.25 74.5H474.34C472.43 74.5 470.67 75.52 469.72 77.17L464.8 85.72C464.36 86.49 464.13 87.35 464.13 88.23V179.33C464.13 181.78 466.11 183.76 468.56 183.76H481.31C483.73 183.76 485.7 181.79 485.7 179.37V78.94C485.7 77.71 485.2 76.6 484.4 75.8C483.58 75 482.47 74.5 481.25 74.5Z" fill="#FEFEFE"/>
<path d="M708.17 93.89H768.47C770.13 93.89 771.48 92.53 771.48 90.89V88.89C771.48 87.57 771.13 86.26 770.47 85.11L765.81 77.1C764.87 75.48 763.15 74.49 761.28 74.49H695.13C693.22 74.49 691.46 75.51 690.51 77.16L685.91 85.1C685.25 86.25 684.9 87.55 684.9 88.88L684.89 169.37C684.89 170.7 685.24 172.01 685.91 173.17L690.51 181.11C691.46 182.76 693.23 183.78 695.13 183.78H761.28C763.15 183.78 764.88 182.79 765.81 181.17L770.47 173.14C771.13 171.99 771.48 170.69 771.48 169.35V167.34C771.48 165.7 770.14 164.36 768.47 164.36H708.16C706.94 164.36 705.96 163.37 705.96 162.16V140.7C705.96 139.48 706.95 138.5 708.16 138.5H749C751 138.5 752.63 136.87 752.63 134.87V122.85C752.63 120.86 751.02 119.25 749.03 119.22H708.16C706.94 119.22 705.96 118.23 705.96 117.02V96.1C705.96 94.88 706.95 93.89 708.17 93.89Z" fill="#FEFEFE"/>
<path d="M897.41 83.19C889.16 75.01 878.46 74.73 876.38 74.7L824.82 74.68C822.91 74.68 821.15 75.7 820.2 77.35L815.28 85.9C814.84 86.67 814.61 87.53 814.61 88.41V179.51C814.61 181.96 816.59 183.94 819.04 183.94H831.79C834.21 183.94 836.18 181.97 836.18 179.55V139.03H876.47C891.2 139.03 906.07 128.9 906.07 106.28C906.06 94.28 901.36 87.1 897.41 83.19ZM876.46 119.62H836.17V94.11H876.48C883.41 94.11 886.65 98.78 886.65 106.28C886.65 115.13 883.41 119.62 876.46 119.62Z" fill="#FEFEFE"/>
<path d="M995.55 183.85C965.42 183.85 940.91 159.34 940.91 129.21C940.91 99.08 965.42 74.57 995.55 74.57C1025.68 74.57 1050.19 99.08 1050.19 129.21C1050.18 159.34 1025.67 183.85 995.55 183.85ZM995.55 93.98C976.12 93.98 960.32 109.78 960.32 129.21C960.32 148.64 976.12 164.44 995.55 164.44C1014.98 164.44 1030.78 148.64 1030.78 129.21C1030.77 109.79 1014.97 93.98 995.55 93.98Z" fill="#FEFEFE"/>
<path d="M1308.82 85.21L1304.16 77.2C1303.22 75.58 1301.5 74.59 1299.63 74.59H1278.18H1249.97H1228.6C1226.73 74.59 1225 75.58 1224.07 77.2L1219.41 85.21C1218.75 86.36 1218.4 87.66 1218.4 88.99V90.99C1218.4 92.63 1219.74 93.99 1221.41 93.99H1249.97H1253.31V179.53C1253.31 181.98 1255.29 183.96 1257.74 183.96H1270.49C1272.91 183.96 1274.88 181.99 1274.88 179.57V93.98H1278.18H1306.82C1308.48 93.98 1309.83 92.62 1309.83 90.98V88.98C1309.83 87.66 1309.48 86.36 1308.82 85.21Z" fill="#FEFEFE"/>
<path d="M1316.59 74.55V75.17H1318.2V79.06H1318.93V75.17H1320.5V74.55H1316.59ZM1325.25 74.55L1323.72 78.09H1323.68L1322.16 74.55H1321.15V79.06H1321.88L1321.84 75.56H1321.88L1323.39 79.06H1324.01L1325.53 75.56H1325.57L1325.53 79.06H1326.26V74.55H1325.25Z" fill="#FEFEFE"/>
<path d="M1158.67 138.19C1170.53 135.24 1180.72 125.08 1180.72 106.35C1180.72 94.35 1176.02 87.17 1172.07 83.26C1163.82 75.08 1153.13 74.75 1151.05 74.77L1099.49 74.75C1097.58 74.75 1095.82 75.77 1094.87 77.42L1089.95 85.97C1089.51 86.74 1089.28 87.6 1089.28 88.48V179.58C1089.28 182.03 1091.26 184.01 1093.71 184.01H1106.46C1108.88 184.01 1110.85 182.04 1110.85 179.62V139.1H1135.13C1140.06 148.87 1156.44 181.34 1156.72 181.88C1157.67 183.71 1158.63 183.95 1160.49 183.92C1160.49 183.92 1175.88 183.95 1178.25 183.95C1180.08 183.95 1181.11 182.28 1180.39 180.93C1179.99 180.22 1158.67 138.19 1158.67 138.19ZM1110.83 94.19H1151.14C1158.07 94.19 1161.31 98.86 1161.31 106.36C1161.31 115.21 1158.07 119.7 1151.12 119.7H1110.83V94.19Z" fill="#FEFEFE"/>
</svg>
